svgs/de_tijd.svg

<svg xmlns="http://www.w3.org/2000/svg" viewBox="0 0 192 192"><path d="M91.809 163.202c5.97-2.413 7.222-9.819 7.222-42.74 0-21.942-.653-27.911-3.346-30.604-3.041-3.041-.38-3.345 29.274-3.337 28.543.007 33.467.524 39.402 4.144 8.972 5.47 11.736 11.158 11.636 23.953-.158 20.459-9.511 27.717-37.318 28.961-15.94.713-18.946.37-16.762-1.912 1.822-1.904 2.662-10.708 2.662-27.903 0-25.05-.015-25.122-5.075-25.122-6.827 0-7.635 3.954-7.67 37.502-.026 24.999-.491 28.509-4.442 33.532-3.391 4.31-6.225 5.578-12.242 5.474-6.468-.111-7.049-.45-3.341-1.948Zm61.725-27.223c4.802-3.207 7.238-11.24 7.238-23.875 0-10.975-.818-13.829-5.226-18.237-2.874-2.874-7.665-5.225-10.645-5.225h-5.419v48.966l5.854-.032c3.22-.018 6.909-.737 8.198-1.597Zm-124.026 4.123c2.816-3.111 3.524-8.46 3.524-26.612V90.771H26.97c-4.182 0-6.778 1.485-8.372 4.79-2.179 4.518-2.318 4.397-2.454-2.129L16 86.513l36.725.032c23.984.021 35.617.733 33.532 2.051-4.404 2.784-4.633 46.624-.272 51.879 2.661 3.206 1.815 3.52-9.474 3.52-9.641 0-11.828-.567-9.841-2.554 1.698-1.699 2.555-10.977 2.555-27.677 0-20.912-.535-25.122-3.194-25.122-1.873 0-3.22 1.98-3.258 4.79-.058 4.278-.297 4.392-2.235 1.064-1.318-2.264-4.726-3.725-8.686-3.725h-6.517l.808 23.62c.695 20.283 1.387 24.043 4.901 26.612 3.661 2.678 2.558 2.992-10.484 2.992-13.985 0-14.432-.157-11.052-3.893ZM18.661 81.593c3.144-2.533 3.726-6.688 3.726-26.612 0-20.24-.532-23.92-3.726-25.781-6.128-3.569 32.26-2.888 40.91.727 18.135 7.577 18.642 39.993.773 49.381-9.4 4.938-47.575 7.031-41.683 2.285Zm34.669-7.934c5.536-6.118 6.841-26.86 2.249-35.741-3.555-6.875-11.267-10.404-17.503-8.011-2.819 1.081-3.225 3.21-2.134 11.171.741 5.41 1.348 15.93 1.348 23.377 0 13.463.035 13.542 6.057 13.542 3.39 0 7.785-1.91 9.983-4.338Zm20.81 6.916c5.402-5.969 5.299-48.215-.125-51.375-2.718-1.583 1.889-2.187 17.032-2.235l20.758-.064v5.652c0 5.341-.215 5.459-3.894 2.129-2.141-1.938-6.931-3.523-10.645-3.523-6.682 0-6.751.109-6.751 10.645 0 10.433.128 10.645 6.454 10.645 3.772 0 6.962-1.327 7.679-3.194 2.204-5.745 5.028-3.353 5.028 4.258 0 4.098-.958 7.452-2.129 7.452a2.135 2.135 0 0 1-2.129-2.129c0-1.171-3.404-2.129-7.563-2.129h-7.563l.644 11.177c.61 10.606.962 11.213 6.886 11.888 4.541.517 7.317-.643 10.183-4.258l3.939-4.969-.602 6.387-.602 6.387-20.1.618c-19.513.599-19.995.501-16.5-3.362Z"/></svg>

<svg
    xmlns="http://www.w3.org/2000/svg"
    viewBox="0 0 192 192"
    id="vector">
    <path
        id="path"
        d="M 91.809 163.202 C 97.779 160.789 99.031 153.383 99.031 120.462 C 99.031 98.52 98.378 92.551 95.685 89.858 C 92.644 86.817 95.305 86.513 124.959 86.521 C 153.502 86.528 158.426 87.045 164.361 90.665 C 173.333 96.135 176.097 101.823 175.997 114.618 C 175.839 135.077 166.486 142.335 138.679 143.579 C 122.739 144.292 119.733 143.949 121.917 141.667 C 123.739 139.763 124.579 130.959 124.579 113.764 C 124.579 88.714 124.564 88.642 119.504 88.642 C 112.677 88.642 111.869 92.596 111.834 126.144 C 111.808 151.143 111.343 154.653 107.392 159.676 C 104.001 163.986 101.167 165.254 95.15 165.15 C 88.682 165.039 88.101 164.7 91.809 163.202 Z M 153.534 135.979 C 158.336 132.772 160.772 124.739 160.772 112.104 C 160.772 101.129 159.954 98.275 155.546 93.867 C 152.672 90.993 147.881 88.642 144.901 88.642 L 139.482 88.642 L 139.482 137.608 L 145.336 137.576 C 148.556 137.558 152.245 136.839 153.534 135.979 Z M 29.508 140.102 C 32.324 136.991 33.032 131.642 33.032 113.49 L 33.032 90.771 L 26.97 90.771 C 22.788 90.771 20.192 92.256 18.598 95.561 C 16.419 100.079 16.28 99.958 16.144 93.432 L 16 86.513 L 52.725 86.545 C 76.709 86.566 88.342 87.278 86.257 88.596 C 81.853 91.38 81.624 135.22 85.985 140.475 C 88.646 143.681 87.8 143.995 76.511 143.995 C 66.87 143.995 64.683 143.428 66.67 141.441 C 68.368 139.742 69.225 130.464 69.225 113.764 C 69.225 92.852 68.69 88.642 66.031 88.642 C 64.158 88.642 62.811 90.622 62.773 93.432 C 62.715 97.71 62.476 97.824 60.538 94.496 C 59.22 92.232 55.812 90.771 51.852 90.771 L 45.335 90.771 L 46.143 114.391 C 46.838 134.674 47.53 138.434 51.044 141.003 C 54.705 143.681 53.602 143.995 40.56 143.995 C 26.575 143.995 26.128 143.838 29.508 140.102 Z M 18.661 81.593 C 21.805 79.06 22.387 74.905 22.387 54.981 C 22.387 34.741 21.855 31.061 18.661 29.2 C 12.533 25.631 50.921 26.312 59.571 29.927 C 77.706 37.504 78.213 69.92 60.344 79.308 C 50.944 84.246 12.769 86.339 18.661 81.593 Z M 53.33 73.659 C 58.866 67.541 60.171 46.799 55.579 37.918 C 52.024 31.043 44.312 27.514 38.076 29.907 C 35.257 30.988 34.851 33.117 35.942 41.078 C 36.683 46.488 37.29 57.008 37.29 64.455 C 37.29 77.918 37.325 77.997 43.347 77.997 C 46.737 77.997 51.132 76.087 53.33 73.659 Z M 74.14 80.575 C 79.542 74.606 79.439 32.36 74.015 29.2 C 71.297 27.617 75.904 27.013 91.047 26.965 L 111.805 26.901 L 111.805 32.553 C 111.805 37.894 111.59 38.012 107.911 34.682 C 105.77 32.744 100.98 31.159 97.266 31.159 C 90.584 31.159 90.515 31.268 90.515 41.804 C 90.515 52.237 90.643 52.449 96.969 52.449 C 100.741 52.449 103.931 51.122 104.648 49.255 C 106.852 43.51 109.676 45.902 109.676 53.513 C 109.676 57.611 108.718 60.965 107.547 60.965 C 106.376 60.965 105.418 60.007 105.418 58.836 C 105.418 57.665 102.014 56.707 97.855 56.707 L 90.292 56.707 L 90.936 67.884 C 91.546 78.49 91.898 79.097 97.822 79.772 C 102.363 80.289 105.139 79.129 108.005 75.514 L 111.944 70.545 L 111.342 76.932 L 110.74 83.319 L 90.64 83.937 C 71.127 84.536 70.645 84.438 74.14 80.575 Z"
        fill="#000000"
        stroke-width="12"/>
</svg>
